X: 15152
T: Gigue De Terrebonne
R: reel
M: 4/4
K: Dmajor
AB/c/|:"D"d2cd BAFA|d2cd "A7"e2AB/c/|"D"d2cd B2AF|"A7"GBAG "D"FED2|
"D"d2cd BAFA|d2cd "A7"e2AB/c/|"D"d2cd BdAd|1 fd"A7"ec "D"d2 AB/c/:|2 fd"A7"ec "D"d2e2||
|:"D"f3a "G"gfed|"D"fdfd "A7"Bcde|"D"f3a "G"gfed|"A7"ceeg "D"fdde|
"D"f3a "G"gfed|"D"fdfd "A7"Bcde|"D"f3a "G"gfed|1 "A7"cABc "D"d2e2:|2 "A7"cABc "D"d2 AB/c/||

